third-party/sentry/sentry-glyph-discord.svg

<?xml version="1.0" encoding="UTF-8" standalone="no"?>
<!DOCTYPE svg PUBLIC "-//W3C//DTD SVG 1.1//EN" "http://www.w3.org/Graphics/SVG/1.1/DTD/svg11.dtd">
<svg width="100%" height="100%" viewBox="0 0 266 250" version="1.1" xmlns="http://www.w3.org/2000/svg" xmlns:xlink="http://www.w3.org/1999/xlink" xml:space="preserve" xmlns:serif="http://www.serif.com/" style="fill-rule:evenodd;clip-rule:evenodd;stroke-linejoin:round;stroke-miterlimit:2;">
    <rect x="0" y="0" width="265.98" height="249.68" style="fill:rgb(87,101,240);"/>
    <g transform="matrix(1,0,0,1,10,10)">
        <path d="M144.9,65.43C142.446,61.184 137.899,58.56 132.995,58.56C128.091,58.56 123.544,61.184 121.09,65.43L101.49,99.38L106.49,102.25C134.378,118.38 152.369,147.492 154.32,179.65L140.56,179.65C138.627,152.376 123.241,127.779 99.56,114.11L94.56,111.25L76.3,143L81.3,145.87C93.57,153.077 101.861,165.547 103.76,179.65L72.33,179.65C72.318,179.65 72.305,179.65 72.293,179.65C71.048,179.65 70.023,178.626 70.023,177.38C70.023,176.98 70.129,176.586 70.33,176.24L79.09,161.07C76.131,158.575 72.742,156.64 69.09,155.36L60.42,170.5C59.215,172.589 58.581,174.959 58.581,177.37C58.581,184.913 64.787,191.12 72.33,191.12L115.58,191.12L115.58,185.39C115.586,167.024 106.74,149.738 91.84,139L98.72,127.08C117.825,140.304 129.26,162.105 129.28,185.34L129.28,191.08L165.93,191.08L165.93,185.35C165.896,149.049 147.498,115.127 117.09,95.3L131,71.17C131.405,70.469 132.156,70.037 132.965,70.037C133.774,70.037 134.525,70.469 134.93,71.17L195.59,176.24C195.791,176.586 195.897,176.98 195.897,177.38C195.897,178.626 194.872,179.65 193.627,179.65C193.615,179.65 193.602,179.65 193.59,179.65L179.4,179.65C179.58,183.48 179.6,187.31 179.4,191.13L193.64,191.13C201.183,191.13 207.389,184.923 207.389,177.38C207.389,174.969 206.755,172.599 205.55,170.51L144.9,65.43Z" style="fill-opacity:0.2;fill-rule:nonzero;"/>
    </g>
    <path d="M144.9,65.43C142.446,61.184 137.899,58.56 132.995,58.56C128.091,58.56 123.544,61.184 121.09,65.43L101.49,99.38L106.49,102.25C134.378,118.38 152.369,147.492 154.32,179.65L140.56,179.65C138.627,152.376 123.241,127.779 99.56,114.11L94.56,111.25L76.3,143L81.3,145.87C93.57,153.077 101.861,165.547 103.76,179.65L72.33,179.65C72.318,179.65 72.305,179.65 72.293,179.65C71.048,179.65 70.023,178.626 70.023,177.38C70.023,176.98 70.129,176.586 70.33,176.24L79.09,161.07C76.131,158.575 72.742,156.64 69.09,155.36L60.42,170.5C59.215,172.589 58.581,174.959 58.581,177.37C58.581,184.913 64.787,191.12 72.33,191.12L115.58,191.12L115.58,185.39C115.586,167.024 106.74,149.738 91.84,139L98.72,127.08C117.825,140.304 129.26,162.105 129.28,185.34L129.28,191.08L165.93,191.08L165.93,185.35C165.896,149.049 147.498,115.127 117.09,95.3L131,71.17C131.405,70.469 132.156,70.037 132.965,70.037C133.774,70.037 134.525,70.469 134.93,71.17L195.59,176.24C195.791,176.586 195.897,176.98 195.897,177.38C195.897,178.626 194.872,179.65 193.627,179.65C193.615,179.65 193.602,179.65 193.59,179.65L179.4,179.65C179.58,183.48 179.6,187.31 179.4,191.13L193.64,191.13C201.183,191.13 207.389,184.923 207.389,177.38C207.389,174.969 206.755,172.599 205.55,170.51L144.9,65.43Z" style="fill:white;fill-rule:nonzero;"/>
</svg>

<svg xmlns="http://www.w3.org/2000/svg" viewBox="0 0 265.98 249.68"><title>sentry-glyph-black</title><path d="M144.9,65.43a13.75,13.75,0,0,0-23.81,0l-19.6,33.95,5,2.87a96.14,96.14,0,0,1,47.83,77.4H140.56a82.4,82.4,0,0,0-41-65.54l-5-2.86L76.3,143l5,2.87a46.35,46.35,0,0,1,22.46,33.78H72.33a2.27,2.27,0,0,1-2-3.41l8.76-15.17a31.87,31.87,0,0,0-10-5.71L60.42,170.5a13.75,13.75,0,0,0,11.91,20.62h43.25v-5.73A57.16,57.16,0,0,0,91.84,139l6.88-11.92a70.93,70.93,0,0,1,30.56,58.26v5.74h36.65v-5.73A107.62,107.62,0,0,0,117.09,95.3L131,71.17a2.27,2.27,0,0,1,3.93,0l60.66,105.07a2.27,2.27,0,0,1-2,3.41H179.4c.18,3.83.2,7.66,0,11.48h14.24a13.75,13.75,0,0,0,11.91-20.62Z" style="fill:#221f20"/></svg>
